svg/clone.svg

<?xml version="1.0" encoding="UTF-8"?>
<svg xmlns="http://www.w3.org/2000/svg" xmlns:xlink="http://www.w3.org/1999/xlink" width="32" height="32" viewBox="0 0 32 32">
<path fill-rule="nonzero" fill="rgb(0%, 0%, 0%)" fill-opacity="1" d="M 28.945312 2 L 8.886719 2 L 8.886719 6.070312 L 23.628906 6.070312 C 23.917969 6.070312 24.148438 6.300781 24.148438 6.589844 L 24.148438 24.894531 L 28.945312 24.894531 Z M 23.113281 25.425781 L 23.113281 7.105469 L 3.054688 7.105469 L 3.054688 24.601562 L 7.933594 24.601562 C 8.226562 24.601562 8.453125 24.832031 8.453125 25.121094 L 8.453125 30 L 23.113281 30 Z M 5.40625 27.253906 L 7.417969 29.210938 L 7.417969 25.632812 L 3.789062 25.632812 Z M 5.40625 27.253906 "/>
</svg>

<svg role="img" viewBox="0 0 32 32" height="32" width="32" xmlns="http://www.w3.org/2000/svg"><path d="M28.945 2H8.887v4.07h14.742c.289 0 .52.23.52.52v18.305h4.796Zm-5.832 23.426V7.106H3.055v17.496h4.879c.293 0 .52.23.52.52V30h14.66ZM5.406 27.254l2.012 1.957v-3.578H3.789Zm0 0"/></svg>
